groups/phosphorus/phosphate.svg

<?xml version='1.0' encoding='iso-8859-1'?>
<svg version='1.1' baseProfile='full'
              xmlns='http://www.w3.org/2000/svg'
                      xmlns:rdkit='http://www.rdkit.org/xml'
                      xmlns:xlink='http://www.w3.org/1999/xlink'
                  xml:space='preserve'
width='256px' height='256px' viewBox='0 0 256 256'>
<!-- END OF HEADER -->
<rect style='opacity:1.0;fill:#FFFFFF;stroke:none' width='256.0' height='256.0' x='0.0' y='0.0'> </rect>
<path class='bond-0 atom-0 atom-1' d='M 45.3,60.4 L 74.1,109.7' style='fill:none;fill-rule:evenodd;stroke:#000000;stroke-width:2.0px;stroke-linecap:butt;stroke-linejoin:miter;stroke-opacity:1' />
<path class='bond-1 atom-1 atom-2' d='M 97.0,124.1 L 141.9,123.9' style='fill:none;fill-rule:evenodd;stroke:#000000;stroke-width:2.0px;stroke-linecap:butt;stroke-linejoin:miter;stroke-opacity:1' />
<path class='bond-2 atom-2 atom-3' d='M 170.8,129.3 L 215.7,129.1' style='fill:none;fill-rule:evenodd;stroke:#000000;stroke-width:2.0px;stroke-linecap:butt;stroke-linejoin:miter;stroke-opacity:1' />
<path class='bond-2 atom-2 atom-3' d='M 170.7,118.2 L 215.7,118.0' style='fill:none;fill-rule:evenodd;stroke:#000000;stroke-width:2.0px;stroke-linecap:butt;stroke-linejoin:miter;stroke-opacity:1' />
<path class='bond-3 atom-2 atom-4' d='M 156.4,146.2 L 156.6,183.2' style='fill:none;fill-rule:evenodd;stroke:#000000;stroke-width:2.0px;stroke-linecap:butt;stroke-linejoin:miter;stroke-opacity:1' />
<path class='bond-4 atom-2 atom-5' d='M 156.3,109.4 L 156.1,72.4' style='fill:none;fill-rule:evenodd;stroke:#000000;stroke-width:2.0px;stroke-linecap:butt;stroke-linejoin:miter;stroke-opacity:1' />
<path class='atom-1' d='M13.4438,78.9624 C14.8384,81.3535 18.0267,79.494 16.6321,77.1028 C15.2375,74.7117 18.4258,72.8521 19.8204,75.2433 C21.215,77.6344 24.4033,75.7749 23.0087,73.3837 C21.6141,70.9926 24.8024,69.133 26.197,71.5242 C27.5916,73.9153 30.78,72.0558 29.3854,69.6646 C27.9907,67.2735 31.1791,65.4139 32.5737,67.8051 C33.9683,70.1962 37.1566,68.3367 35.762,65.9455 C34.3674,63.5544 37.5557,61.6948 38.9503,64.086 C40.3449,66.4771 43.5332,64.6176 42.1386,62.2264 C40.744,59.8353 43.9323,57.9757 45.327,60.3669 C46.7216,62.7581 49.9099,60.8985 48.5153,58.5074 C47.1207,56.1162 50.309,54.2566 51.7036,56.6478 C53.0982,59.039 56.2865,57.1794 54.8919,54.7883 C53.4973,52.3971 56.6856,50.5376 58.0802,52.9287 C59.4749,55.3199 62.6632,53.4603 61.2686,51.0692 C59.874,48.678 63.0623,46.8185 64.4569,49.2096 C65.8515,51.6008 69.0398,49.7412 67.6452,47.3501 C66.2506,44.9589 69.4389,43.0994 70.8335,45.4905 C72.2281,47.8817 75.4165,46.0221 74.0218,43.631 C72.6272,41.2398 75.8156,39.3803 77.2102,41.7714' style='fill:none;stroke:#7F7F7F;stroke-width:2.0px;stroke-linecap:butt;stroke-linejoin:miter;stroke-opacity:1' />
<text x='70.5' y='144.1' class='atom-1' style='font-size:40px;font-style:normal;font-weight:normal;fill-opacity:1;stroke:none;font-family:sans-serif;text-anchor:start;fill:#000000' >O</text>
<text x='144.3' y='143.8' class='atom-2' style='font-size:40px;font-style:normal;font-weight:normal;fill-opacity:1;stroke:none;font-family:sans-serif;text-anchor:start;fill:#000000' >P</text>
<text x='218.2' y='143.5' class='atom-3' style='font-size:40px;font-style:normal;font-weight:normal;fill-opacity:1;stroke:none;font-family:sans-serif;text-anchor:start;fill:#000000' >O</text>
<text x='144.7' y='217.6' class='atom-4' style='font-size:40px;font-style:normal;font-weight:normal;fill-opacity:1;stroke:none;font-family:sans-serif;text-anchor:start;fill:#000000' >O</text>
<text x='172.3' y='217.6' class='atom-4' style='font-size:40px;font-style:normal;font-weight:normal;fill-opacity:1;stroke:none;font-family:sans-serif;text-anchor:start;fill:#000000' >H</text>
<text x='144.0' y='70.0' class='atom-5' style='font-size:40px;font-style:normal;font-weight:normal;fill-opacity:1;stroke:none;font-family:sans-serif;text-anchor:start;fill:#000000' >O</text>
<text x='171.6' y='70.0' class='atom-5' style='font-size:40px;font-style:normal;font-weight:normal;fill-opacity:1;stroke:none;font-family:sans-serif;text-anchor:start;fill:#000000' >H</text>
</svg>

<svg height="256" viewBox="0 0 256 256" width="256" xmlns="http://www.w3.org/2000/svg"><path d="m0 0h256v256h-256z" fill="#fff"/><g fill="none" stroke-width="2"><path d="m45.3 60.4 28.8 49.3" stroke="#000"/><path d="m97 124.1 44.9-.2" stroke="#000"/><path d="m170.8 129.3 44.9-.2" stroke="#000"/><path d="m170.7 118.2 45-.2" stroke="#000"/><path d="m156.4 146.2.2 37" stroke="#000"/><path d="m156.3 109.4-.2-37" stroke="#000"/><path d="m13.444 78.962c1.394 2.392 4.583.532 3.188-1.859-1.394-2.391 1.794-4.251 3.188-1.86 1.395 2.391 4.583.532 3.189-1.859-1.395-2.391 1.793-4.251 3.188-1.86s4.583.532 3.188-1.859c-1.394-2.391 1.794-4.251 3.189-1.86 1.394 2.391 4.583.532 3.188-1.859-1.395-2.392 1.794-4.251 3.188-1.86 1.395 2.391 4.583.532 3.189-1.86-1.395-2.391 1.793-4.25 3.188-1.859s4.583.532 3.188-1.86c-1.394-2.391 1.794-4.25 3.189-1.859 1.394 2.391 4.583.531 3.188-1.86s1.794-4.25 3.188-1.859c1.395 2.391 4.583.531 3.189-1.86-1.395-2.391 1.793-4.25 3.188-1.859s4.583.531 3.188-1.86c-1.394-2.391 1.794-4.251 3.189-1.859 1.394 2.391 4.583.531 3.188-1.86s1.794-4.251 3.188-1.86" stroke="#7f7f7f"/></g><text font-family="sans-serif" font-size="40" x="70.5" y="144.1">O</text><text font-family="sans-serif" font-size="40" x="144.3" y="143.8">P</text><text font-family="sans-serif" font-size="40" x="218.2" y="143.5">O</text><text font-family="sans-serif" font-size="40" x="144.7" y="217.6">O</text><text font-family="sans-serif" font-size="40" x="172.3" y="217.6">H</text><text font-family="sans-serif" font-size="40" x="144" y="70">O</text><text font-family="sans-serif" font-size="40" x="171.6" y="70">H</text></svg>
